img/logo-white.svg

<svg width="133" height="49" viewBox="0 0 133 49" fill="none" xmlns="http://www.w3.org/2000/svg">
<path d="M48.5829 35.9458C38.6599 35.9458 30.5845 27.8843 30.5845 17.9783C30.5736 8.06148 38.649 0 48.5829 0C54.2346 0 59.4406 2.57143 62.886 7.05244L59.4298 9.68897C56.8213 6.29295 52.8651 4.33996 48.5829 4.33996C41.051 4.33996 34.9319 10.4593 34.9319 17.9674C34.9319 25.4864 41.0618 31.5949 48.5829 31.5949C52.8651 31.5949 56.8213 29.642 59.4298 26.2459L62.886 28.8825C59.4406 33.3743 54.2346 35.9458 48.5829 35.9458Z" fill="white"/>
<path d="M24.2153 30.3689V0.933105H19.8678V30.3689H10.4773C7.0972 30.3689 4.34744 27.6239 4.34744 24.2387V0.933105H0V24.2496C0 30.0217 4.70611 34.7089 10.4773 34.7089H27.052V30.3689H24.2153Z" fill="white"/>
<path d="M92.2416 34.698H87.8942V12.0868C87.8942 7.81194 84.4162 4.33996 80.134 4.33996C75.8518 4.33996 72.3738 7.81194 72.3738 12.0868V34.698H68.0264V12.0868C68.0155 5.42496 73.4498 0 80.134 0C86.8182 0 92.2416 5.42496 92.2416 12.0868V34.698Z" fill="white"/>
<path d="M114.925 35.9458C105.002 35.9458 96.9263 27.8843 96.9263 17.9783C96.9154 8.06148 104.991 0 114.925 0C124.859 0 132.923 8.06148 132.923 17.9674C132.923 27.8843 124.848 35.9458 114.925 35.9458ZM114.925 4.33996C107.393 4.33996 101.274 10.4593 101.274 17.9674C101.274 25.4864 107.404 31.5949 114.925 31.5949C122.446 31.5949 128.576 25.4756 128.576 17.9674C128.576 10.4593 122.457 4.33996 114.925 4.33996Z" fill="white"/>
<path d="M3.91284 47.9132L1.6413 41.8698H1.59783C1.6413 42.3689 1.66304 42.9982 1.66304 43.7252V47.9024H0.869629V41.0127H2.15212L4.28237 46.6546H4.32585L6.4887 41.0127H7.76033V47.9024H6.90171V43.6709C6.90171 43.2044 6.92344 42.5968 6.96692 41.8807H6.92344L4.6193 47.9132H3.91284Z" fill="white"/>
<path d="M16.0097 47.9131H12.1514V41.0234H16.0097V41.7829H13.0209V43.9312H15.8358V44.6799H13.0209V47.1428H16.0097V47.9131Z" fill="white"/>
<path d="M21.8784 44.3652L19.2048 41.0234H20.1721L22.8131 44.3544V41.0234H23.65V44.3544L26.2911 41.0234H27.2584L24.5847 44.3544L27.3453 47.9023H26.3454L23.65 44.4086V47.9023H22.8131V44.4086L20.1068 47.9023H19.1069L21.8784 44.3652Z" fill="white"/>
<path d="M35.2144 43.0524C35.2144 43.7576 34.9753 44.3001 34.4971 44.669C34.0189 45.0487 33.3341 45.2332 32.4647 45.2332H31.6712V47.9131H30.8018V41.0234H32.6277C34.3558 41.0234 35.2144 41.6961 35.2144 43.0524ZM31.6712 44.4846H32.3668C33.0516 44.4846 33.5515 44.3761 33.8558 44.1482C34.1602 43.9312 34.3123 43.5732 34.3123 43.0849C34.3123 42.6401 34.171 42.3146 33.8884 42.0867C33.6059 41.8697 33.1602 41.7612 32.5516 41.7612H31.6712V44.4846Z" fill="white"/>
<path d="M43.018 47.9131H39.1597V41.0234H43.018V41.7829H40.0292V43.9312H42.8441V44.6799H40.0292V47.1428H43.018V47.9131Z" fill="white"/>
<path d="M50.9413 41.0234V41.7938H47.9198V47.9131H47.0503V41.0234H50.9413Z" fill="white"/>
<path d="M54.6367 41.0234H55.4519V44.8101C55.4519 45.0813 55.441 45.4285 55.4301 45.8733C55.4193 46.3182 55.3975 46.6003 55.3867 46.7305H55.4301L59.2233 41.0343H60.1906V47.924H59.3754V44.1591C59.3754 43.8336 59.3863 43.4538 59.408 43.0198C59.4298 42.5858 59.4406 42.3037 59.4515 42.1735H59.408L55.604 47.9023H54.6367V41.0234Z" fill="white"/>
<path d="M70.581 44.4521C70.581 45.5588 70.2985 46.4268 69.7442 47.0561C69.1899 47.6854 68.4073 48 67.3965 48C66.3858 48 65.5924 47.6854 65.0381 47.0669C64.4838 46.4485 64.2012 45.5696 64.2012 44.4413C64.2012 43.3237 64.4729 42.4557 65.0272 41.8373C65.5815 41.2188 66.3749 40.915 67.3965 40.915C68.3965 40.915 69.179 41.2297 69.7333 41.859C70.3093 42.4774 70.581 43.3454 70.581 44.4521ZM65.125 44.4521C65.125 45.3635 65.3206 46.0579 65.701 46.5353C66.0923 47.0127 66.6575 47.2514 67.3965 47.2514C68.1356 47.2514 68.7008 47.0127 69.0812 46.5461C69.4616 46.0796 69.6572 45.3744 69.6572 44.4521C69.6572 43.5299 69.4616 42.8355 69.0812 42.3689C68.7008 41.9024 68.1356 41.6745 67.3965 41.6745C66.6466 41.6745 66.0814 41.9132 65.6902 42.3798C65.3206 42.8572 65.125 43.5516 65.125 44.4521Z" fill="white"/>
<path d="M79.8954 47.9131H79.0259V44.7016H75.4828V47.9131H74.6133V41.0234H75.4828V43.9312H79.0259V41.0234H79.8954V47.9131Z" fill="white"/>
<path d="M88.7095 43.0524C88.7095 43.7576 88.4704 44.3001 87.9922 44.669C87.514 45.0487 86.8293 45.2332 85.9598 45.2332H85.1664V47.9131H84.2969V41.0234H86.1228C87.8509 41.0234 88.7095 41.6961 88.7095 43.0524ZM85.1664 44.4846H85.862C86.5467 44.4846 87.0466 44.3761 87.351 44.1482C87.6553 43.9312 87.8183 43.5732 87.8183 43.0849C87.8183 42.6401 87.677 42.3146 87.3836 42.0867C87.101 41.8697 86.6554 41.7612 86.0467 41.7612H85.1664V44.4846Z" fill="white"/>
<path d="M96.5131 47.9131H92.6548V41.0234H96.5131V41.7829H93.5243V43.9312H96.3392V44.6799H93.5243V47.1428H96.5131V47.9131Z" fill="white"/>
<path d="M103.502 41.6852C102.763 41.6852 102.176 41.9347 101.752 42.4338C101.328 42.9329 101.111 43.6056 101.111 44.4736C101.111 45.3633 101.317 46.0468 101.73 46.5351C102.143 47.0125 102.73 47.262 103.491 47.262C103.98 47.262 104.534 47.1752 105.143 46.9908V47.7503C104.85 47.8588 104.567 47.9347 104.295 47.9673C104.024 47.9998 103.708 48.0215 103.361 48.0215C102.35 48.0215 101.567 47.7177 101.013 47.0993C100.459 46.4808 100.187 45.6128 100.187 44.4736C100.187 43.7684 100.317 43.1391 100.578 42.6074C100.839 42.0758 101.22 41.6635 101.719 41.3705C102.219 41.0776 102.817 40.9365 103.491 40.9365C104.219 40.9365 104.861 41.0667 105.393 41.338L105.045 42.0758C104.513 41.8154 103.991 41.6852 103.502 41.6852Z" fill="white"/>
<path d="M109.61 48C109.251 48 108.936 47.9566 108.675 47.859V47.0344C108.958 47.1646 109.262 47.2297 109.588 47.2297C109.925 47.2297 110.197 47.1537 110.403 46.991C110.61 46.8282 110.805 46.5462 111.001 46.1339L108.349 41.0127H109.306L111.284 44.8427C111.36 44.9946 111.425 45.1574 111.49 45.331H111.534L111.566 45.2225L111.708 44.8319L113.36 41.0127H114.283L112.077 45.9386C111.816 46.5245 111.577 46.9476 111.36 47.2188C111.142 47.4901 110.903 47.6854 110.632 47.8047C110.327 47.9458 109.99 48 109.61 48Z" fill="white"/>
<path d="M122.12 43.0524C122.12 43.7576 121.881 44.3001 121.402 44.669C120.924 45.0487 120.239 45.2332 119.37 45.2332H118.577V47.9131H117.707V41.0234H119.533C121.261 41.0234 122.12 41.6961 122.12 43.0524ZM118.577 44.4846H119.272C119.957 44.4846 120.457 44.3761 120.761 44.1482C121.065 43.9312 121.228 43.5732 121.228 43.0849C121.228 42.6401 121.087 42.3146 120.794 42.0867C120.511 41.8697 120.066 41.7612 119.457 41.7612H118.577V44.4846Z" fill="white"/>
<path d="M129.021 41.6852C128.282 41.6852 127.695 41.9347 127.272 42.4338C126.848 42.9329 126.63 43.6056 126.63 44.4736C126.63 45.3633 126.837 46.0468 127.25 46.5351C127.663 47.0125 128.25 47.262 129.011 47.262C129.5 47.262 130.054 47.1752 130.663 46.9908V47.7503C130.369 47.8588 130.087 47.9347 129.815 47.9673C129.543 47.9998 129.228 48.0215 128.88 48.0215C127.869 48.0215 127.087 47.7177 126.533 47.0993C125.978 46.4808 125.707 45.6128 125.707 44.4736C125.707 43.7684 125.837 43.1391 126.098 42.6074C126.359 42.0758 126.739 41.6635 127.239 41.3705C127.739 41.0776 128.337 40.9365 129.011 40.9365C129.739 40.9365 130.38 41.0667 130.913 41.338L130.565 42.0758C130.032 41.8154 129.511 41.6852 129.021 41.6852Z" fill="white"/>
</svg>

<svg width="133" height="49" fill="none" xmlns="http://www.w3.org/2000/svg"><path d="M48.583 35.946c-9.923 0-17.998-8.062-17.998-17.968C30.573 8.061 38.648 0 48.582 0c5.652 0 10.858 2.571 14.303 7.052L59.43 9.69a13.588 13.588 0 00-10.847-5.35c-7.532 0-13.651 6.12-13.651 13.627 0 7.52 6.13 13.628 13.65 13.628 4.283 0 8.24-1.953 10.848-5.35l3.456 2.637c-3.445 4.492-8.651 7.064-14.303 7.064zm-24.368-5.577V.933h-4.347V30.37h-9.39a6.134 6.134 0 01-6.13-6.13V.933H0V24.25c0 5.772 4.706 10.459 10.477 10.459h16.575v-4.34h-2.837zm68.027 4.329h-4.348V12.087c0-4.275-3.478-7.747-7.76-7.747s-7.76 3.472-7.76 7.747v22.611h-4.348V12.087C68.016 5.425 73.45 0 80.134 0s12.108 5.425 12.108 12.087v22.611zm22.683 1.248c-9.923 0-17.999-8.062-17.999-17.968C96.916 8.061 104.991 0 114.925 0s17.998 8.061 17.998 17.967c0 9.917-8.075 17.979-17.998 17.979zm0-31.606c-7.532 0-13.651 6.12-13.651 13.627 0 7.52 6.13 13.628 13.651 13.628s13.651-6.12 13.651-13.628S122.457 4.34 114.925 4.34zM3.913 47.913L1.64 41.87h-.043c.043.499.065 1.128.065 1.855v4.177H.87v-6.89h1.282l2.13 5.643h.044l2.163-5.642H7.76v6.89h-.858V43.67c0-.467.021-1.074.065-1.79h-.044L4.62 47.913h-.706zm12.097 0h-3.86v-6.89h3.859v.76h-2.99v2.148h2.816v.749H13.02v2.463h2.989v.77zm5.868-3.548l-2.673-3.342h.967l2.641 3.331v-3.33h.837v3.33l2.641-3.33h.967l-2.673 3.33 2.76 3.548h-1L23.65 44.41v3.493h-.837V44.41l-2.706 3.493h-1l2.771-3.537zm13.336-1.313c0 .706-.239 1.248-.717 1.617-.478.38-1.163.564-2.032.564h-.794v2.68h-.87v-6.89h1.827c1.728 0 2.586.673 2.586 2.03zm-3.543 1.433h.696c.685 0 1.184-.109 1.489-.337.304-.217.456-.575.456-1.063 0-.445-.141-.77-.424-.998-.282-.217-.728-.326-1.336-.326h-.88v2.724zm11.347 3.428H39.16v-6.89h3.858v.76h-2.989v2.148h2.815v.749H40.03v2.463h2.989v.77zm7.923-6.89v.77H47.92v6.12h-.87v-6.89h3.891zm3.696 0h.815v3.787c0 .271-.011.618-.022 1.063-.01.445-.032.727-.043.858h.043l3.793-5.697h.968v6.89h-.816v-3.765c0-.325.011-.705.033-1.14.022-.433.033-.715.044-.846h-.044l-3.804 5.73h-.967v-6.88zm15.944 3.429c0 1.107-.282 1.975-.837 2.604-.554.63-1.337.944-2.347.944-1.011 0-1.805-.315-2.359-.933-.554-.618-.837-1.497-.837-2.626 0-1.117.272-1.985.826-2.604.555-.618 1.348-.922 2.37-.922 1 0 1.782.315 2.336.944.576.618.848 1.486.848 2.593zm-5.456 0c0 .912.196 1.606.576 2.083.391.478.957.716 1.696.716s1.304-.238 1.684-.705c.38-.466.576-1.172.576-2.094 0-.922-.195-1.616-.576-2.083-.38-.467-.945-.694-1.684-.694-.75 0-1.316.238-1.707.705-.37.477-.565 1.172-.565 2.072zm14.77 3.461h-.87v-3.211h-3.542v3.211h-.87v-6.89h.87v2.908h3.543v-2.908h.87v6.89zm8.815-4.861c0 .706-.24 1.248-.718 1.617-.478.38-1.163.564-2.032.564h-.794v2.68h-.87v-6.89h1.827c1.728 0 2.587.673 2.587 2.03zm-3.544 1.433h.696c.685 0 1.185-.109 1.489-.337.304-.217.467-.575.467-1.063 0-.445-.141-.77-.434-.998-.283-.217-.729-.326-1.337-.326h-.88v2.724zm11.347 3.428h-3.858v-6.89h3.858v.76h-2.989v2.148h2.815v.749h-2.815v2.463h2.99v.77zm6.989-6.228c-.739 0-1.326.25-1.75.749-.424.499-.641 1.172-.641 2.04 0 .89.206 1.573.619 2.061.413.478 1 .727 1.761.727.489 0 1.043-.087 1.652-.271v.76a3.747 3.747 0 01-.848.216 7.897 7.897 0 01-.934.055c-1.011 0-1.794-.304-2.348-.923-.554-.618-.826-1.486-.826-2.625 0-.706.13-1.335.391-1.867a2.866 2.866 0 011.141-1.236c.5-.293 1.098-.434 1.772-.434.728 0 1.37.13 1.902.401l-.348.738c-.532-.26-1.054-.39-1.543-.39zM109.61 48c-.359 0-.674-.043-.935-.141v-.825c.283.13.587.196.913.196.337 0 .609-.076.815-.239.207-.163.402-.445.598-.857l-2.652-5.121h.957l1.978 3.83c.076.152.141.314.206.488h.044l.032-.109.142-.39 1.652-3.82h.923l-2.206 4.927c-.261.586-.5 1.009-.717 1.28a1.944 1.944 0 01-.728.586c-.305.14-.642.195-1.022.195zm12.51-4.948c0 .706-.239 1.248-.718 1.617-.478.38-1.163.564-2.032.564h-.793v2.68h-.87v-6.89h1.826c1.728 0 2.587.673 2.587 2.03zm-3.543 1.433h.695c.685 0 1.185-.109 1.489-.337.304-.217.467-.575.467-1.063 0-.445-.141-.77-.434-.998-.283-.217-.728-.326-1.337-.326h-.88v2.724zm10.444-2.8c-.739 0-1.326.25-1.749.749-.424.499-.642 1.172-.642 2.04 0 .89.207 1.573.62 2.061.413.478 1 .727 1.761.727.489 0 1.043-.087 1.652-.271v.76a3.76 3.76 0 01-.848.216 7.915 7.915 0 01-.935.055c-1.011 0-1.793-.304-2.347-.923-.555-.618-.826-1.486-.826-2.625 0-.706.13-1.335.391-1.867a2.86 2.86 0 011.141-1.236c.5-.293 1.098-.434 1.772-.434.728 0 1.369.13 1.902.401l-.348.738c-.533-.26-1.054-.39-1.544-.39z" fill="#fff"/></svg>
